!! 00000] TT[WS
!!!OTL: Hong xiuying
!!!ARE: Asia, China,ÿShanxi Wutai
!! Ethnic Group: Han
!! WI, 94 (1)
!!!SCT: J0112
!!!YEM: Copyright 1995, estate of Helmut Schaffrath.
**kern
*ICvox
*Ivox
*M2/4
*k[f#]
*G:
{8dd
8ee
4a
=1
8dd
8ee
4a
=2
8dd
8dd
8ee
8dd
=3
8dd
8g
4a}
=4
{8dd
8dd
8ee
8dd
=5
8cc
8ee
8dd
8dd
=6
8e
8g
4a
=7
8.cc
16a
8g
8b
=8
16a
16g
8e
4d}
==
!!!AGN: Xiaodiao. Qingge, Aisu
!!!ONB: ESAC (Essen Associative Code) Database: CHINA
!!!AMT: simple duple
!!!AIN: vox
!!!EED: Helmut Schaffrath
!!!EEV: 1.0
*-
